assets/Japanese symbol for beginner/Flat/japanese_symbol_for_beginner_flat.svg

<svg width="32" height="32" viewBox="0 0 32 32" fill="none" xmlns="http://www.w3.org/2000/svg">
<path d="M26.25 2.07066L16 7.99066L5.75 2.07066C5.42 1.88066 5 2.12066 5 2.50066L5.01 23.3007C5.01 23.6607 5.2 23.9907 5.51 24.1707L15.39 29.8307C15.78 30.0507 16.25 30.0507 16.63 29.8307L26.5 24.1707C26.81 23.9907 27 23.6607 27 23.3007V2.50066C27 2.12066 26.58 1.88066 26.25 2.07066Z" fill="#F9C23C"/>
<path d="M16.63 29.8307L26.5 24.1707C26.81 23.9907 27 23.6607 27 23.3007V2.50068C27 2.12068 26.58 1.87068 26.25 2.07068L16 7.99068L16.01 30.0007C16.22 30.0007 16.44 29.9507 16.63 29.8307Z" fill="#44911B"/>
</svg>

<svg xmlns="http://www.w3.org/2000/svg" width="32" height="32" fill="none"><path fill="#F9C23C" d="M26.25 2.07 16 7.99 5.75 2.07A.502.502 0 0 0 5 2.5l.01 20.8c0 .36.19.69.5.87l9.88 5.66c.39.22.86.22 1.24 0l9.87-5.66c.31-.18.5-.51.5-.87V2.5c0-.38-.42-.62-.75-.43Z"/><path fill="#44911B" d="m16.63 29.83 9.87-5.66c.31-.18.5-.51.5-.87V2.5c0-.38-.42-.63-.75-.43L16 7.99 16.01 30c.21 0 .43-.05.62-.17Z"/></svg>
